public/assets/images/icons/aur-icon2.svg

<svg width="44" height="45" viewBox="0 0 44 45" fill="none" xmlns="http://www.w3.org/2000/svg">
<path d="M43.8673 27.6262L39.1342 30.8877L39.477 36.6262L33.7945 37.5021L31.6134 42.8219L26.1118 41.1543L21.8387 45L17.6098 41.1025L12.0907 42.7186L9.9677 37.376L4.29754 36.4287L4.70361 30.6935L0 27.3869L2.85389 22.3967L0.0595997 17.3735L4.7927 14.1123L4.44985 8.37384L10.1323 7.49759L12.3135 2.17812L17.8151 3.84542L22.0885 0L26.3171 3.89719L31.8362 2.28137L33.9595 7.62401L39.6294 8.5713L39.2233 14.3062L43.9269 17.6131L41.073 22.6032L43.8673 27.6262Z" fill="#FBFF00"/>
<path d="M33.1675 22.0516C33.0417 23.7737 31.5432 25.0677 29.8212 24.9416L13.8402 23.7731C12.1181 23.6472 10.824 22.1488 10.9499 20.427L11.4297 13.8656C11.5555 12.1435 13.0536 10.8494 14.7757 10.9752L30.7564 12.1438C32.4785 12.2696 33.7725 13.768 33.6467 15.4901L33.1675 22.0516Z" fill="#4E8B5C"/>
<path d="M18.3043 18.3864C18.2769 18.7623 17.9497 19.0447 17.5737 19.0173L14.0856 18.7623C13.7097 18.7349 13.4273 18.4077 13.455 18.0318L13.5597 16.5996C13.5871 16.2239 13.914 15.9412 14.29 15.9686L17.7781 16.2236C18.1541 16.251 18.4364 16.5782 18.409 16.9538L18.3043 18.3864Z" fill="#E2BE47"/>
<path d="M15.9622 16.0908L15.7578 18.8845" stroke="#333331" stroke-width="0.301011" stroke-miterlimit="10"/>
<path d="M13.5781 17.3213L18.3576 17.6708" stroke="#333331" stroke-width="0.301011" stroke-miterlimit="10"/>
<path d="M14.9496 16.9919L14.8867 17.8525L16.7546 17.9891L16.8175 17.1284L14.9496 16.9919Z" fill="#E2BE47" stroke="#333331" stroke-width="0.301011" stroke-miterlimit="10"/>
<path d="M13.168 20.1543L23.3888 20.9017" stroke="#333331" stroke-width="0.903034" stroke-miterlimit="10"/>
<path d="M30.6366 15.9015C30.5595 16.9539 29.6441 17.7449 28.5918 17.6679C27.5395 17.5908 26.7487 16.6751 26.8255 15.6228C26.9025 14.5704 27.8179 13.7797 28.8702 13.8567C29.9229 13.9335 30.7136 14.8492 30.6366 15.9015Z" fill="#ECEEE5"/>
<path d="M12.2096 31.3331C12.1971 31.5042 12.17 31.692 12.1284 31.8965C12.0869 32.0981 12.0276 32.3013 11.9504 32.5062C11.8733 32.7081 11.7745 32.904 11.6539 33.0939C11.5335 33.2808 11.3881 33.4436 11.2179 33.5824C11.0506 33.7214 10.8544 33.8286 10.6295 33.9041C10.4045 33.9796 10.1475 34.0068 9.85849 33.9856C9.56945 33.9645 9.31892 33.9032 9.10691 33.8017C8.89786 33.7004 8.72034 33.5733 8.57437 33.4203C8.43156 33.2646 8.31681 33.0901 8.23011 32.897C8.14363 32.7009 8.07844 32.4975 8.03454 32.2867C7.99064 32.0759 7.96455 31.8649 7.95626 31.6538C7.95114 31.4399 7.95548 31.2386 7.96927 31.0499C7.99364 30.7166 8.0617 30.3939 8.17347 30.0818C8.28545 29.7668 8.44057 29.4905 8.63881 29.253C8.84 29.0156 9.08188 28.8302 9.36444 28.6966C9.64995 28.5633 9.97704 28.5101 10.3457 28.5371C10.5935 28.5552 10.8134 28.6098 11.0054 28.701C11.1976 28.7891 11.3656 28.9037 11.5095 29.0447C11.6534 29.1857 11.7721 29.3471 11.8655 29.5289C11.962 29.7108 12.0384 29.9018 12.095 30.1016C12.1516 30.3014 12.1884 30.5073 12.2055 30.719C12.2227 30.9308 12.224 31.1355 12.2096 31.3331ZM10.6593 31.3666C10.6642 31.2987 10.6674 31.2145 10.6689 31.1138C10.6735 31.0103 10.6725 30.902 10.6659 30.7889C10.6594 30.6757 10.6469 30.5621 10.6286 30.4481C10.6132 30.3343 10.5881 30.2316 10.5532 30.1401C10.5184 30.0486 10.4721 29.9726 10.4142 29.912C10.3593 29.8517 10.2906 29.8185 10.208 29.8124C10.1284 29.8066 10.0571 29.8281 9.99426 29.8769C9.93139 29.9257 9.87471 29.9912 9.82422 30.0735C9.77667 30.156 9.73417 30.2508 9.69669 30.3577C9.66239 30.462 9.6324 30.568 9.60672 30.6758C9.58421 30.7809 9.56487 30.8833 9.54869 30.983C9.53568 31.0799 9.52669 31.1622 9.52173 31.2301C9.51462 31.3274 9.51337 31.4459 9.51798 31.5856C9.5226 31.7253 9.54091 31.8601 9.57294 31.9899C9.60496 32.1198 9.65302 32.233 9.71712 32.3296C9.78439 32.4235 9.87702 32.4747 9.99499 32.4834C10.1071 32.4915 10.203 32.457 10.2828 32.3799C10.3655 32.3029 10.4333 32.207 10.4862 32.0923C10.5392 31.9746 10.5795 31.85 10.6069 31.7186C10.6343 31.5871 10.6517 31.4698 10.6593 31.3666ZM16.2358 27.1218C16.1851 27.3286 16.142 27.533 16.1065 27.735C16.0741 27.9343 16.0508 28.1313 16.0366 28.3259C16.0323 28.3849 16.0278 28.4454 16.0233 28.5073C16.0188 28.5693 16.0173 28.6299 16.0189 28.6894C15.9567 28.5662 15.8747 28.4713 15.7729 28.4045C15.671 28.3378 15.5684 28.3006 15.4652 28.2931C15.3944 28.2879 15.324 28.2976 15.254 28.3221C15.184 28.3466 15.1218 28.3866 15.0674 28.4419C15.0129 28.4972 14.9662 28.5679 14.9273 28.6541C14.8914 28.7404 14.8691 28.8425 14.8604 28.9605L15.9697 28.9971C15.9274 29.1304 15.8951 29.2674 15.873 29.4081C15.854 29.5461 15.839 29.6903 15.828 29.8407C15.822 29.9233 15.8174 30.006 15.8143 30.0888C15.8112 30.1716 15.8095 30.256 15.8091 30.342C15.6251 30.3048 15.4496 30.2712 15.2828 30.2412C15.1162 30.2083 14.94 30.185 14.7541 30.1714C14.7327 30.3834 14.7124 30.5998 14.6933 30.8208C14.6744 31.0389 14.657 31.257 14.641 31.4753C14.607 31.9413 14.585 32.4037 14.5752 32.8626C14.5683 33.3217 14.5903 33.7711 14.6412 34.2107C14.3159 34.1187 13.9747 34.0597 13.6178 34.0336C13.432 34.02 13.247 34.0154 13.0629 34.0197C12.8817 34.0243 12.7014 34.0363 12.5221 34.0558C12.6112 33.7688 12.6873 33.4585 12.7502 33.1251C12.8131 32.7917 12.8662 32.4516 12.9093 32.1048C12.9554 31.7583 12.9954 31.4143 13.0292 31.0728C13.0631 30.7313 13.0939 30.4104 13.1218 30.1099C13.027 30.1089 12.9231 30.1102 12.8102 30.1139C12.6975 30.1145 12.5934 30.1188 12.4979 30.1266C12.5222 29.9979 12.5431 29.8734 12.5608 29.7531C12.5787 29.6299 12.5923 29.5049 12.6016 29.3781C12.6098 29.266 12.6149 29.1552 12.617 29.0456C12.6193 28.9331 12.6145 28.8156 12.6027 28.6932L13.2726 28.7777C13.295 28.471 13.3538 28.1936 13.4491 27.9455C13.5475 27.6948 13.6815 27.4836 13.8512 27.3122C14.0211 27.1378 14.2262 27.009 14.4665 26.9258C14.71 26.8398 14.9881 26.8082 15.3008 26.8311C15.401 26.8384 15.4875 26.8521 15.5602 26.8723C15.636 26.8897 15.7084 26.9127 15.7775 26.9415C15.8468 26.9673 15.9173 26.9962 15.9891 27.0282C16.0611 27.0571 16.1433 27.0884 16.2358 27.1218ZM19.669 27.3728C19.6183 27.5796 19.5751 27.784 19.5396 27.986C19.5073 28.1853 19.484 28.3822 19.4697 28.5769C19.4654 28.6359 19.461 28.6963 19.4565 28.7583C19.4519 28.8202 19.4505 28.8809 19.4521 28.9403C19.3899 28.8172 19.3079 28.7222 19.206 28.6555C19.1042 28.5887 19.0016 28.5516 18.8984 28.544C18.8276 28.5388 18.7572 28.5485 18.6872 28.5731C18.6172 28.5976 18.555 28.6375 18.5005 28.6929C18.4461 28.7482 18.3994 28.8189 18.3605 28.905C18.3245 28.9913 18.3022 29.0935 18.2936 29.2115L19.4029 29.2481C19.3605 29.3814 19.3283 29.5184 19.3061 29.6591C19.2871 29.7971 19.2722 29.9413 19.2612 30.0917C19.2551 30.1743 19.2506 30.257 19.2475 30.3398C19.2444 30.4226 19.2427 30.507 19.2423 30.5929C19.0582 30.5557 18.8828 30.5222 18.7159 30.4922C18.5493 30.4592 18.3731 30.436 18.1873 30.4224C18.1659 30.6343 18.1456 30.8508 18.1265 31.0718C18.1076 31.2898 18.0902 31.508 18.0742 31.7262C18.0401 32.1922 18.0182 32.6547 18.0084 33.1136C18.0015 33.5727 18.0235 34.0221 18.0744 34.4617C17.749 34.3697 17.4079 34.3106 17.051 34.2846C16.8652 34.271 16.6802 34.2663 16.496 34.2707C16.3148 34.2752 16.1346 34.2872 15.9552 34.3068C16.0444 34.0197 16.1205 33.7095 16.1834 33.376C16.2463 33.0426 16.2993 32.7025 16.3425 32.3558C16.3885 32.0093 16.4285 31.6652 16.4624 31.3238C16.4962 30.9823 16.5271 30.6613 16.555 30.3609C16.4602 30.3599 16.3563 30.3612 16.2434 30.3648C16.1306 30.3655 16.0265 30.3697 15.9311 30.3776C15.9553 30.2489 15.9763 30.1244 15.994 30.0041C16.0119 29.8809 16.0255 29.7558 16.0347 29.629C16.0429 29.5169 16.0481 29.4061 16.0501 29.2966C16.0524 29.184 16.0477 29.0666 16.0359 28.9441L16.7058 29.0287C16.7282 28.7219 16.787 28.4445 16.8822 28.1965C16.9806 27.9457 17.1147 27.7346 17.2843 27.5632C17.4542 27.3888 17.6594 27.26 17.8997 27.1767C18.1432 27.0907 18.4213 27.0592 18.7339 27.082C18.8342 27.0893 18.9207 27.1031 18.9933 27.1232C19.0692 27.1406 19.1416 27.1637 19.2107 27.1925C19.2799 27.2183 19.3505 27.2472 19.4223 27.2791C19.4943 27.3081 19.5765 27.3393 19.669 27.3728ZM23.2757 30.6031C23.2596 30.8243 23.2114 31.0372 23.1312 31.2419C23.0539 31.4468 22.9298 31.6245 22.7586 31.7751C22.5875 31.9257 22.3627 32.0397 22.0842 32.1172C21.8087 32.1949 21.463 32.2186 21.0472 32.1882C21.0484 32.3336 21.069 32.4566 21.1091 32.5574C21.1521 32.6584 21.2054 32.7409 21.2689 32.8048C21.3325 32.8688 21.4015 32.9183 21.476 32.9534C21.5506 32.9885 21.6198 33.0143 21.6839 33.0309C21.7479 33.0474 21.802 33.0573 21.8463 33.0605C21.8905 33.0638 21.9126 33.0654 21.9126 33.0654C22.097 33.0581 22.2641 33.0229 22.4141 32.9597C22.4782 32.9348 22.5413 32.9023 22.6035 32.8624C22.666 32.8195 22.7231 32.7688 22.7748 32.7103C22.8297 32.6491 22.8748 32.5797 22.9101 32.5023C22.9486 32.4221 22.9746 32.3291 22.9883 32.2233C23.051 32.4206 23.0909 32.6044 23.1081 32.7747C23.1285 32.9423 23.1334 33.0983 23.1228 33.2428C23.1034 33.5083 23.0368 33.7495 22.9231 33.9666C22.8126 34.1809 22.6673 34.363 22.4873 34.5129C22.3074 34.6628 22.0976 34.7735 21.8582 34.845C21.6214 34.9196 21.3674 34.947 21.096 34.9272C20.8306 34.9078 20.5773 34.8433 20.3362 34.7337C20.0981 34.6244 19.8904 34.4639 19.7132 34.2523C19.5391 34.0379 19.4061 33.7673 19.3144 33.4403C19.2256 33.1136 19.1978 32.7231 19.231 32.2689C19.267 31.7764 19.3697 31.345 19.5391 30.9749C19.7085 30.6048 19.922 30.3001 20.1797 30.061C20.4375 29.8189 20.7276 29.6429 21.05 29.533C21.3755 29.4204 21.7108 29.3767 22.0559 29.402C22.2269 29.4145 22.3892 29.4456 22.5428 29.4954C22.6992 29.5454 22.8332 29.6189 22.9447 29.716C23.0592 29.8133 23.1466 29.9354 23.2071 30.0821C23.2677 30.2259 23.2906 30.3996 23.2757 30.6031ZM21.0828 31.4569C21.1656 31.46 21.2627 31.4508 21.3739 31.4293C21.4855 31.4048 21.5919 31.3681 21.6933 31.3192C21.7948 31.2702 21.8809 31.2069 21.9519 31.129C22.0257 31.0514 22.0666 30.9595 22.0743 30.8533C22.0793 30.7855 22.0597 30.7292 22.0155 30.6844C21.9713 30.6397 21.9124 30.6146 21.8386 30.6092C21.7354 30.6017 21.6403 30.6244 21.5534 30.6773C21.4695 30.7305 21.3948 30.7992 21.3293 30.8834C21.2668 30.9677 21.214 31.0617 21.1709 31.1653C21.1277 31.2689 21.0984 31.3661 21.0828 31.4569ZM26.0511 30.9083C25.9597 30.9016 25.8751 30.9221 25.7975 30.9698C25.7201 31.0145 25.6485 31.082 25.5826 31.172C25.5199 31.2594 25.4616 31.3663 25.4079 31.4928C25.3571 31.6196 25.3128 31.7602 25.2748 31.9145C25.2565 32.1652 25.2438 32.4193 25.2369 32.6768C25.2299 32.9343 25.2305 33.1893 25.2388 33.442C25.247 33.6946 25.263 33.9419 25.2868 34.1838C25.3136 34.426 25.3501 34.6569 25.3963 34.8768C25.3493 34.8704 25.2951 34.862 25.2336 34.8515C25.1807 34.8447 25.116 34.837 25.0396 34.8285C24.966 34.8201 24.8806 34.8124 24.7833 34.8053C24.6004 34.7919 24.3874 34.7852 24.1443 34.7853C23.9043 34.7825 23.6367 34.7926 23.3414 34.8155C23.3889 34.6529 23.4346 34.4532 23.4786 34.2162C23.5227 33.9792 23.5637 33.7213 23.6019 33.4424C23.6401 33.1635 23.6747 32.8725 23.7058 32.5693C23.74 32.2634 23.768 31.9616 23.7898 31.6637C23.8059 31.4425 23.8188 31.2255 23.8285 31.0127C23.8381 30.7999 23.8439 30.5987 23.8459 30.409C23.8508 30.2196 23.8503 30.0446 23.8442 29.8841C23.8382 29.7235 23.8276 29.5848 23.8124 29.4681C24.0483 29.5269 24.2629 29.5722 24.4563 29.6041C24.6528 29.6333 24.8292 29.6536 24.9855 29.665C25.0858 29.6724 25.1744 29.6774 25.2513 29.68C25.3284 29.6797 25.3952 29.6787 25.4517 29.6769C25.5143 29.6726 25.571 29.6678 25.6218 29.6626C25.5756 29.8075 25.5371 29.9693 25.5062 30.1479C25.6732 29.9733 25.8499 29.8483 26.0362 29.773C26.2256 29.6979 26.3999 29.6661 26.5591 29.6778C26.8246 29.6972 27.0452 29.7622 27.2209 29.8729C27.3969 29.9807 27.5352 30.1168 27.6359 30.2813C27.7367 30.4429 27.805 30.6243 27.8407 30.8256C27.8764 31.0269 27.8868 31.2293 27.872 31.4328C27.8575 31.6304 27.8154 31.8215 27.7455 32.0062C27.6757 32.1909 27.5822 32.3545 27.465 32.4972C27.348 32.6369 27.2081 32.7468 27.0451 32.8268C26.8821 32.9068 26.7017 32.9396 26.5041 32.9251C26.3301 32.9124 26.1833 32.872 26.0638 32.804C25.9471 32.7361 25.8525 32.6521 25.7797 32.5519C25.707 32.4517 25.6556 32.3442 25.6254 32.2293C25.5984 32.1117 25.589 31.9968 25.5972 31.8847C25.6058 31.7668 25.6305 31.6529 25.6711 31.5432C25.7147 31.4337 25.7723 31.3356 25.8438 31.2489C25.8597 31.3153 25.8812 31.3673 25.9081 31.4049C25.9381 31.4397 25.9688 31.4656 26.0002 31.4828C26.0343 31.503 26.0719 31.5162 26.113 31.5221C26.2221 31.5301 26.3051 31.511 26.3618 31.4647C26.4215 31.4187 26.4538 31.3617 26.4588 31.2939C26.4612 31.2614 26.458 31.2241 26.4492 31.182C26.4404 31.1398 26.4211 31.0999 26.3912 31.0621C26.3643 31.0246 26.3237 30.9919 26.2694 30.9643C26.2153 30.9336 26.1425 30.9149 26.0511 30.9083ZM30.7481 28.7163C30.6153 28.9913 30.4943 29.2879 30.3851 29.6061C30.279 29.9215 30.1854 30.2483 30.1044 30.5863C30.0233 30.9243 29.9551 31.2692 29.8997 31.621C29.8473 31.973 29.8085 32.3216 29.7833 32.6666C29.7751 32.7787 29.7685 32.8894 29.7634 32.9988C29.7614 33.1083 29.7593 33.2179 29.7572 33.3275C29.6121 33.2842 29.4692 33.2516 29.3285 33.2294C29.1909 33.2045 29.0514 33.1869 28.9098 33.1766C28.8243 33.1703 28.7371 33.1669 28.6481 33.1663C28.5624 33.163 28.4762 33.1656 28.3896 33.1741C28.4035 33.0654 28.4161 32.9537 28.4274 32.8389C28.439 32.7211 28.4489 32.6062 28.4571 32.4941C28.4845 32.1195 28.4957 31.7423 28.4909 31.3624C28.4892 30.9797 28.4741 30.6184 28.4456 30.2782C28.4203 29.9354 28.3823 29.6228 28.3318 29.3403C28.2815 29.055 28.223 28.8209 28.1563 28.6381C28.2584 28.6604 28.3844 28.6814 28.5342 28.7013C28.6871 28.7184 28.8506 28.7333 29.0246 28.746C29.178 28.7572 29.3345 28.7657 29.4942 28.7715C29.6569 28.7774 29.8139 28.78 29.9651 28.7792C30.1194 28.7786 30.2636 28.7729 30.3978 28.7619C30.5321 28.751 30.6488 28.7358 30.7481 28.7163ZM28.0039 34.3735C28.0132 34.2467 28.0455 34.129 28.1009 34.0203C28.1595 33.909 28.2331 33.8136 28.322 33.7341C28.4138 33.6548 28.5174 33.5956 28.633 33.5566C28.7516 33.5149 28.8759 33.4988 29.0057 33.5083C29.1325 33.5175 29.2501 33.5513 29.3585 33.6097C29.4701 33.6653 29.5655 33.739 29.6448 33.8307C29.7241 33.9225 29.7831 34.0277 29.8219 34.1461C29.8639 34.2619 29.8802 34.3832 29.8709 34.51C29.8614 34.6398 29.8274 34.7603 29.7689 34.8717C29.7135 34.9803 29.6399 35.0743 29.5481 35.1536C29.4565 35.2299 29.3515 35.2875 29.233 35.3263C29.1173 35.3682 28.996 35.3845 28.8692 35.3753C28.7394 35.3658 28.6188 35.3318 28.5075 35.2732C28.3988 35.2178 28.3048 35.1457 28.2253 35.0569C28.149 34.9653 28.0898 34.8617 28.0479 34.7459C28.0091 34.6274 27.9944 34.5033 28.0039 34.3735Z" fill="#3971FA"/>
</svg>

<svg xmlns="http://www.w3.org/2000/svg" width="44" height="45" fill="none"><path fill="#FBFF00" d="m43.867 27.626-4.733 3.262.343 5.738-5.682.876-2.182 5.32-5.501-1.668L21.839 45l-4.23-3.898-5.518 1.617-2.123-5.343-5.67-.947.406-5.736L0 27.388l2.854-4.99L.06 17.374l4.733-3.262-.343-5.738 5.682-.876 2.182-5.32 5.501 1.667L22.088 0l4.23 3.897 5.518-1.616 2.124 5.343 5.67.947-.407 5.735 4.704 3.307-2.854 4.99z"/><path fill="#4E8B5C" d="M33.168 22.052a3.126 3.126 0 0 1-3.347 2.89l-15.98-1.169a3.127 3.127 0 0 1-2.891-3.346l.48-6.561a3.127 3.127 0 0 1 3.346-2.89l15.98 1.168a3.127 3.127 0 0 1 2.89 3.346z"/><path fill="#E2BE47" d="M18.304 18.386a.683.683 0 0 1-.73.631l-3.488-.255a.68.68 0 0 1-.631-.73l.105-1.432a.683.683 0 0 1 .73-.631l3.488.255a.68.68 0 0 1 .631.73z"/><path stroke="#333331" stroke-miterlimit="10" stroke-width=".301" d="m15.962 16.09-.204 2.794M13.578 17.321l4.78.35"/><path fill="#E2BE47" stroke="#333331" stroke-miterlimit="10" stroke-width=".301" d="m14.95 16.992-.063.86 1.868.137.063-.86z"/><path stroke="#333331" stroke-miterlimit="10" stroke-width=".903" d="m13.168 20.154 10.22.748"/><path fill="#ECEEE5" d="M30.637 15.902a1.91 1.91 0 1 1-3.812-.28 1.91 1.91 0 0 1 3.812.28"/><path fill="#3971FA" d="M12.21 31.333q-.02.257-.082.564-.061.301-.178.61a3.3 3.3 0 0 1-.296.587q-.18.28-.436.488a1.8 1.8 0 0 1-.588.322 2 2 0 0 1-.772.082 2.1 2.1 0 0 1-.751-.184 1.8 1.8 0 0 1-.533-.382 2 2 0 0 1-.344-.523 3 3 0 0 1-.195-.61 4 4 0 0 1-.079-.633q-.007-.32.013-.604.037-.5.204-.968.168-.472.466-.829.302-.356.725-.556.429-.2.982-.16a1.84 1.84 0 0 1 1.163.508q.216.21.357.484.144.273.229.573t.11.617q.027.318.005.614m-1.55.034q.006-.102.009-.253a3 3 0 0 0-.04-.666 1.4 1.4 0 0 0-.076-.308.7.7 0 0 0-.139-.228.3.3 0 0 0-.206-.1.3.3 0 0 0-.214.065.7.7 0 0 0-.17.197q-.071.123-.127.284-.052.156-.09.318a6 6 0 0 0-.058.307q-.02.146-.027.247a3 3 0 0 0-.004.356q.007.21.055.404t.144.34q.1.14.278.153a.36.36 0 0 0 .288-.103.9.9 0 0 0 .203-.288q.08-.176.12-.373a3 3 0 0 0 .053-.352m5.576-4.245q-.076.31-.13.613-.048.3-.07.59l-.013.182a2 2 0 0 0-.004.182.7.7 0 0 0-.246-.285.65.65 0 0 0-.308-.11.5.5 0 0 0-.211.028.5.5 0 0 0-.187.12.7.7 0 0 0-.14.212 1 1 0 0 0-.067.306l1.11.037q-.064.2-.097.411a7 7 0 0 0-.064.934q-.276-.055-.526-.1a4 4 0 0 0-.529-.07 45 45 0 0 0-.113 1.303q-.051.7-.066 1.388-.01.688.066 1.348a5 5 0 0 0-1.023-.177 5.8 5.8 0 0 0-1.096.022q.134-.43.228-.93t.16-1.021q.067-.52.12-1.032l.092-.963q-.143-.002-.312.004a4 4 0 0 0-.312.013 9 9 0 0 0 .063-.374 5 5 0 0 0 .056-.707 3 3 0 0 0-.014-.353l.67.085q.032-.46.176-.832.147-.376.402-.634.255-.261.615-.386a2.04 2.04 0 0 1 1.094-.054q.114.026.217.07.105.038.212.086.108.044.247.094m3.433.25q-.076.311-.13.614a7 7 0 0 0-.083.772 2 2 0 0 0-.004.182.7.7 0 0 0-.246-.285.65.65 0 0 0-.308-.111.52.52 0 0 0-.398.149.7.7 0 0 0-.14.212 1 1 0 0 0-.066.306l1.109.037q-.064.2-.097.411a7 7 0 0 0-.064.934q-.277-.055-.526-.1a4 4 0 0 0-.529-.07 45 45 0 0 0-.113 1.303 27 27 0 0 0-.066 1.388q-.01.688.066 1.348a5 5 0 0 0-1.023-.177 5.7 5.7 0 0 0-1.096.022q.134-.431.228-.931t.16-1.02q.068-.52.12-1.032l.092-.963q-.142-.002-.312.004-.168 0-.312.013.036-.195.063-.374a5 5 0 0 0 .056-.707 3 3 0 0 0-.014-.353l.67.085q.033-.46.176-.832.149-.376.402-.634.255-.261.616-.386a2.04 2.04 0 0 1 1.093-.054q.114.026.218.07.104.038.211.086.108.044.247.094m3.607 3.231a2.2 2.2 0 0 1-.145.639 1.3 1.3 0 0 1-.372.533 1.7 1.7 0 0 1-.675.342q-.413.117-1.037.071.002.219.062.37a.731.731 0 0 0 .367.396 1.2 1.2 0 0 0 .37.106l.067.005a1.4 1.4 0 0 0 .69-.203 1 1 0 0 0 .172-.152q.082-.09.135-.208a.9.9 0 0 0 .078-.279q.095.296.12.552.03.25.015.468a1.8 1.8 0 0 1-.2.724 1.7 1.7 0 0 1-.436.546q-.27.224-.629.332-.355.112-.762.082a2.2 2.2 0 0 1-.76-.193 1.8 1.8 0 0 1-.623-.482 2.2 2.2 0 0 1-.399-.812q-.132-.49-.083-1.171a3.8 3.8 0 0 1 .308-1.294q.255-.555.64-.914.388-.363.871-.528.487-.169 1.006-.131.255.019.487.093.234.075.402.221.172.146.262.366.09.216.069.521m-2.193.854a1.3 1.3 0 0 0 .61-.138.8.8 0 0 0 .259-.19.44.44 0 0 0 .122-.276.2.2 0 0 0-.059-.169.27.27 0 0 0-.176-.075.47.47 0 0 0-.286.068.9.9 0 0 0-.224.206 1.3 1.3 0 0 0-.158.282q-.065.156-.088.292m4.968-.549a.4.4 0 0 0-.253.062.7.7 0 0 0-.215.202 1.7 1.7 0 0 0-.175.32q-.075.191-.133.422-.027.376-.038.763a13 13 0 0 0 .05 1.507q.04.363.11.693l-.163-.026a12 12 0 0 0-.45-.046 9 9 0 0 0-.64-.02 9 9 0 0 0-.803.03 6 6 0 0 0 .138-.599q.066-.355.123-.774t.104-.873a24 24 0 0 0 .122-1.556 18 18 0 0 0 .016-1.129 5 5 0 0 0-.032-.416q.354.088.644.136a7 7 0 0 0 .795.076q.116 0 .2-.003.095-.007.17-.014a4 4 0 0 0-.115.485q.25-.262.53-.375.285-.113.523-.095.398.03.662.195.264.162.415.408.15.242.205.545.053.3.031.607a2 2 0 0 1-.127.573 1.7 1.7 0 0 1-.28.491q-.176.21-.42.33-.245.12-.54.098a.912.912 0 0 1-.724-.373.96.96 0 0 1-.184-.667q.014-.177.074-.342.066-.164.173-.294a.5.5 0 0 0 .064.156.34.34 0 0 0 .205.117q.164.012.249-.057a.23.23 0 0 0 .097-.171.4.4 0 0 0-.01-.112.33.33 0 0 0-.18-.218.5.5 0 0 0-.218-.056m4.697-2.192a8 8 0 0 0-.363.89q-.16.474-.28.98-.123.507-.205 1.035a14 14 0 0 0-.137 1.378l-.006.328a3 3 0 0 0-.429-.098 4 4 0 0 0-.938-.055 12 12 0 0 0 .067-.68q.041-.562.034-1.132a14 14 0 0 0-.045-1.084 9 9 0 0 0-.114-.938 4 4 0 0 0-.176-.702q.153.033.378.063a13 13 0 0 0 1.431.078q.231 0 .433-.017.2-.016.35-.046m-2.744 5.657a.9.9 0 0 1 .097-.353q.088-.166.221-.286a.9.9 0 0 1 .311-.177.91.91 0 0 1 .726.053.91.91 0 0 1 .463.536.912.912 0 0 1-.053.726.9.9 0 0 1-.22.282 1 1 0 0 1-.316.172.91.91 0 0 1-.726-.053 1 1 0 0 1-.282-.216 1 1 0 0 1-.177-.311 1 1 0 0 1-.044-.373"/></svg>
